X:1
T:Title
%%score { ( 1 3 ) | 2 }
L:1/8
M:4/4
K:Ab
V:1 treble nm="Grand Piano"
V:3 treble 
V:2 bass 
V:1
 z4 z2[Q:1/4=90] EE | [CA][CA] [CA]>[CA] [CA][CE][EA]B |[M:3/4] cc c>c c2 |[M:1/4] dc | %4
[M:4/4] cBB=A cBBG |[M:3/4] [DB][CA] [EG][DF] [CE]2 |[M:1/4] [DE]>[DE] |[M:4/4] A6 z2 | e6 z2 | %9
 AAAA AG [Ac]>[GB] |[M:3/4] A6 |[M:1/4] FA |[M:4/4] [Fd]2 [Fd]2 [DF]2 [DF]2 | %13
 [CE][CA] [EA]>B c2 cd | e2 ee [Ed][Ec][DB][CA] | B6 cB |[M:3/4] [DB][CA] [CA][CG] [CA]2 | %17
[M:1/4] [CE][EA] |[M:4/4] [EG]F=EF [Fd]2 [Ec][FB] | [Ae][Ec][CA][Fd] [Ec]2 [DB]2 |[M:3/4] [CA]6 |] %21
V:2
 z4 z2 E,E, | [A,,A,][A,,A,] [A,,A,]>[A,,A,] [A,,A,][A,,A,][C,A,][E,G,E] | %2
[M:3/4][K:treble] [A,E][A,E] [A,E]>[A,E] [A,E]2 |[M:1/4] [A,F][K:bass][A,E] | %4
[M:4/4] [E,A,E][E,G,E][E,G,E][E,_G,E] [E,=G,E][E,G,D][E,G,D][E,B,D] | %5
[M:3/4] [A,,A,][A,,A,] [A,,A,][A,,A,] [A,,A,]2 |[M:1/4] [E,G,]>[E,G,] | %7
[M:4/4] [A,,A,][A,,A,][A,,A,][A,,A,] [A,,A,][A,,A,][K:treble] [A,C]>[A,E] | %8
 [A,CA]2 [A,C][A,C][K:bass] [A,C]2 [D,A,][D,D] | %9
 [E,CE][E,CE][E,CE][E,CE] [E,CE][E,B,E] [E,E]>[E,D] |[M:3/4][K:treble] [A,CE]6 |[M:1/4] DF | %12
[M:4/4][K:bass] [D,A,]2 [D,A,]2 [D,A,]2 [D,A,]2 | %13
 [A,,A,][A,,A,] [C,A,]>[E,G,E][K:treble] [A,E]2 [A,E][A,B,E] | %14
 [A,CA]2 [A,CA][A,CA][K:bass] [A,,B,][A,,A,][A,,A,][A,,A,] | [E,G,E]6 [E,G,E][E,G,D] | %16
[M:3/4] [A,,A,][A,,E,] [A,,E,][A,,E,] [A,,E,]2 |[M:1/4] [A,,A,][C,A,] | %18
[M:4/4] [D,A,][D,A,D][D,A,D][D,A,D] [B,,B,]2 [C,=A,][D,B,] | %19
 [E,C][E,A,][F,A,][D,A,] [E,A,]2 [E,G,]2 |[M:3/4] [A,,A,]6 |] %21
V:3
 x8 | x8 |[M:3/4] x6 |[M:1/4] x2 |[M:4/4] x8 |[M:3/4] x6 |[M:1/4] x2 |[M:4/4] CCCC C[CE] A>c | %8
 z2 AA A2 [Fd][FB] | x8 |[M:3/4] x6 |[M:1/4] x2 |[M:4/4] x8 | x8 | x8 | x8 |[M:3/4] x6 | %17
[M:1/4] x2 |[M:4/4] x8 | x8 |[M:3/4] x6 |] %21

